X:059
L:1/16
M:C|
K:Bb
d e>=e | g>fd>B F>Bd>b | a>ge>c =E>Gc>B | A>ca>g A>cg>f | =e>gf>d B>d_e>=e |
g>fd>B F>Bd>b | a>ge>c =E>Gc>G | A>ca>g A>cg>f | B4 b4 B2 z ::
=B c>_B | A>cf>a c>AB>A | A>c=e>g b>ag>f | ((3=eba) ((3gfe) d>c=B>c | d>cA>F C>=Bc>_B |

